X: 17569
T: Ho Fearan, Hi Fearan
R: reel
M: 4/4
K: Gmajor
B2 d2 B2 A<G|e2 g2 e2 d<B|B2 d2 B2 A<G|G A3 B4|
A2 Be ed e2|e4 G2 G2|e3 B B<A G<E|G4 A4||

